X:162
T:Scotch Mary (r)
B:NFID.168a
162scotch_m
S:F&MB
L:1/8
M:C
R:reel
Q:360
K:Am
%A
cE (3EDE cded|cE (3EDE G2AB|cE (3EDE cded|c2AG EAAB|
cE (3EDE cded|cE (3EDE G2AB|c2cd ebed|(3cdc AG EAAd||
%B
eaag edBd|eg^fa g2gd|eaag edBd|(3cdc AG EAAd|
eaag edBd|eg^fa g2fg|(3ag^f (3gfe fded|(3cdc AG EAAB||
%C
cded ^cded|=cAG^F G2Bd|cded ^cded|(3cdc AG EAAB|
cded ^cded|=cAG^F G2Bd|cdea ^fbed|(3cdc AG EAAd||

%%%

